packages/icons/general/RedditRound.svg

<svg width="24" height="24" viewBox="0 0 24 24" xmlns="http://www.w3.org/2000/svg">
<g>
        <circle cx="12" cy="12" r="12" fill="#FF3D00" />
        <path
            d="M14.6645 16.0301C14.8073 16.173 14.8073 16.3114 14.6645 16.4453C14.1109 16.9989 13.2225 17.2757 11.9993 17.2757C10.7761 17.2757 9.8877 16.9989 9.33412 16.4453C9.19127 16.3114 9.19127 16.173 9.33412 16.0301C9.3877 15.9766 9.45466 15.9498 9.53502 15.9498C9.61537 15.9498 9.68234 15.9766 9.73591 16.0301C10.1645 16.4676 10.9189 16.6864 11.9993 16.6864C13.0707 16.6864 13.8252 16.4676 14.2627 16.0301C14.3163 15.9766 14.3832 15.9498 14.4636 15.9498C14.5439 15.9498 14.6109 15.9766 14.6645 16.0301ZM10.5529 13.606C10.5529 13.9364 10.4368 14.2176 10.2047 14.4498C9.97252 14.6819 9.69127 14.798 9.36091 14.798C9.03055 14.798 8.74707 14.6819 8.51046 14.4498C8.27386 14.2176 8.15555 13.9364 8.15555 13.606C8.15555 13.2667 8.27386 12.981 8.51046 12.7489C8.74707 12.5167 9.03055 12.4007 9.36091 12.4007C9.69127 12.4007 9.97252 12.519 10.2047 12.7556C10.4368 12.9922 10.5529 13.2757 10.5529 13.606ZM15.8431 13.606C15.8431 13.9364 15.7247 14.2176 15.4881 14.4498C15.2515 14.6819 14.9681 14.798 14.6377 14.798C14.3073 14.798 14.0261 14.6819 13.7939 14.4498C13.5618 14.2176 13.4457 13.9364 13.4457 13.606C13.4457 13.2757 13.5618 12.9922 13.7939 12.7556C14.0261 12.519 14.3073 12.4007 14.6377 12.4007C14.9681 12.4007 15.2515 12.5167 15.4881 12.7489C15.7247 12.981 15.8431 13.2667 15.8431 13.606ZM19.2047 11.9989C19.2047 11.5614 19.0484 11.1864 18.7359 10.8739C18.4234 10.5614 18.0439 10.4051 17.5975 10.4051C17.1511 10.4051 16.7672 10.5658 16.4457 10.8873C15.285 10.0837 13.8966 9.65513 12.2806 9.60156L13.1243 5.81138L15.8029 6.41406C15.8029 6.74442 15.9189 7.02567 16.1511 7.25781C16.3832 7.48996 16.6645 7.60603 16.9948 7.60603C17.3252 7.60603 17.6087 7.48772 17.8453 7.25112C18.0819 7.01451 18.2002 6.73103 18.2002 6.40067C18.2002 6.07031 18.0819 5.78683 17.8453 5.55022C17.6087 5.31362 17.3252 5.19531 16.9948 5.19531C16.5127 5.19531 16.1556 5.41853 15.9234 5.86496L12.9636 5.20871C12.7939 5.16406 12.6823 5.23549 12.6288 5.42299L11.7047 9.60156C10.0975 9.66406 8.71805 10.0971 7.56627 10.9007C7.25377 10.5703 6.86537 10.4051 6.40109 10.4051C5.95466 10.4051 5.5752 10.5614 5.2627 10.8739C4.9502 11.1864 4.79395 11.5614 4.79395 11.9989C4.79395 12.3114 4.87653 12.5971 5.04171 12.856C5.20689 13.115 5.42787 13.3114 5.70466 13.4453C5.65109 13.6864 5.6243 13.9364 5.6243 14.1953C5.6243 15.4632 6.2493 16.548 7.4993 17.4498C8.7493 18.3516 10.2538 18.8025 12.0127 18.8025C13.7806 18.8025 15.2895 18.3516 16.5395 17.4498C17.7895 16.548 18.4145 15.4632 18.4145 14.1953C18.4145 13.9096 18.3832 13.6551 18.3207 13.4319C18.5886 13.298 18.8029 13.1038 18.9636 12.8493C19.1243 12.5949 19.2047 12.3114 19.2047 11.9989Z"
            fill="white"
        />
    </g>
</svg>

<svg xmlns="http://www.w3.org/2000/svg" width="24" height="24">
    <circle cx="12" cy="12" r="12" fill="#FF3D00"/>
    <path fill="#fff" d="M14.665 16.03c.142.143.142.281 0 .415-.554.554-1.442.83-2.666.83-1.223 0-2.111-.276-2.665-.83-.143-.134-.143-.272 0-.415a.273.273 0 0 1 .201-.08c.08 0 .147.027.2.08.43.438 1.184.656 2.264.656 1.072 0 1.826-.218 2.264-.656a.273.273 0 0 1 .2-.08c.08 0 .148.027.202.08Zm-4.112-2.424c0 .33-.116.612-.348.844a1.15 1.15 0 0 1-.844.348 1.17 1.17 0 0 1-.85-.348 1.138 1.138 0 0 1-.355-.844c0-.34.118-.625.354-.857.237-.232.52-.348.85-.348.331 0 .613.118.845.355.232.236.348.52.348.85Zm5.29 0c0 .33-.118.612-.355.844a1.17 1.17 0 0 1-.85.348 1.15 1.15 0 0 1-.844-.348 1.15 1.15 0 0 1-.348-.844c0-.33.116-.614.348-.85.232-.237.513-.355.844-.355.33 0 .614.116.85.348.237.232.355.518.355.857Zm3.362-1.607c0-.438-.157-.813-.47-1.125a1.55 1.55 0 0 0-1.137-.469c-.447 0-.83.16-1.152.482-1.161-.803-2.55-1.232-4.165-1.285l.843-3.79 2.679.602c0 .33.116.612.348.844.232.232.514.348.844.348.33 0 .614-.118.85-.355a1.16 1.16 0 0 0 .355-.85c0-.33-.118-.614-.355-.85a1.16 1.16 0 0 0-.85-.356c-.482 0-.84.224-1.072.67l-2.96-.656c-.17-.045-.28.026-.334.214l-.924 4.179c-1.607.062-2.987.495-4.139 1.299-.312-.33-.7-.496-1.165-.496a1.55 1.55 0 0 0-1.138.469 1.534 1.534 0 0 0-.47 1.125 1.603 1.603 0 0 0 .912 1.447c-.054.24-.08.49-.08.75 0 1.267.624 2.352 1.874 3.254 1.25.902 2.755 1.352 4.514 1.352 1.768 0 3.277-.45 4.527-1.352 1.25-.902 1.875-1.987 1.875-3.255 0-.285-.032-.54-.094-.763a1.585 1.585 0 0 0 .884-1.433Z"/>
</svg>
